X: 20934
T: Jovie's
R: jig
M: 6/8
K: Dmajor
|FE|:"D"~D3 ~F3|AdD FED|~D3 "A"~A3|"D"FAD EFE|
"D"~D3 ~F3|AdD FED|"G"D2 z "D"DFA|"A7"DF>A "D"E D2:|
AB|:"D"~d3 ~f3|dfd edA|~D3 "A"~A3|"D"FAD EFA|
"D"~d3 ~f3|dfd edA|"G"D2 z "D"DFA|"A7"DF>A "D"E D2:|

